X: 38916
T: Superfly
R: reel
M: 4/4
K: Bminor
|:B~f3 gfeg|f3g fedf|e3f edce|dBBA BAFA|
Bf ~f2 gfeg|f3 f2 edf|~e3A edce|dBBA B4:|
|:Bcde fz Bc|defB gz Bc|defB a3f|gfeg fedc|
Bcde fz Bc|defB gz Bc|defd a3f|gfeg f4:|

